static/img/kroki/b98dfc534617b792203bfdf254c1827e.svg

<?xml version="1.0" encoding="us-ascii" standalone="no"?><svg xmlns="http://www.w3.org/2000/svg" xmlns:xlink="http://www.w3.org/1999/xlink" contentStyleType="text/css" height="374px" preserveAspectRatio="none" style="width:383px;height:374px;" version="1.1" viewBox="0 0 383 374" width="383px" zoomAndPan="magnify"><defs/><g><!--class digitalocean_container_registry--><g id="elem_digitalocean_container_registry"><rect codeLine="23" fill="#3D176E" height="39.7891" id="digitalocean_container_registry" rx="2.5" ry="2.5" style="stroke:#000D19;stroke-width:0.5;" width="304" x="7" y="328.58"/><ellipse cx="22" cy="348.4745" fill="#ADD1B2" rx="11" ry="11" style="stroke:#181818;stroke-width:1.0;"/><path d="M24.9688,354.1152 Q24.3906,354.412 23.75,354.5527 Q23.1094,354.7089 22.4063,354.7089 Q19.9063,354.7089 18.5781,353.0683 Q17.2656,351.412 17.2656,348.287 Q17.2656,345.162 18.5781,343.5058 Q19.9063,341.8495 22.4063,341.8495 Q23.1094,341.8495 23.75,342.0058 Q24.4063,342.162 24.9688,342.4589 L24.9688,345.1777 Q24.3438,344.5995 23.75,344.3339 Q23.1563,344.0527 22.5313,344.0527 Q21.1875,344.0527 20.5,345.1308 Q19.8125,346.1933 19.8125,348.287 Q19.8125,350.3808 20.5,351.4589 Q21.1875,352.5214 22.5313,352.5214 Q23.1563,352.5214 23.75,352.2558 Q24.3438,351.9745 24.9688,351.3964 L24.9688,354.1152 Z " fill="#000000"/><text fill="#D9B8FF" font-family="Helvetica" font-size="17" lengthAdjust="spacing" textLength="262" x="41" y="354.3598">digitalocean_container_registry</text></g><!--class digitalocean_resource--><g id="elem_digitalocean_resource"><rect codeLine="26" fill="#3D176E" height="39.7891" id="digitalocean_resource" rx="2.5" ry="2.5" style="stroke:#000D19;stroke-width:0.5;" width="223" x="153.5" y="167.79"/><ellipse cx="168.5" cy="187.6845" fill="#ADD1B2" rx="11" ry="11" style="stroke:#181818;stroke-width:1.0;"/><path d="M171.4688,193.3252 Q170.8906,193.622 170.25,193.7627 Q169.6094,193.9189 168.9063,193.9189 Q166.4063,193.9189 165.0781,192.2783 Q163.7656,190.622 163.7656,187.497 Q163.7656,184.372 165.0781,182.7158 Q166.4063,181.0595 168.9063,181.0595 Q169.6094,181.0595 170.25,181.2158 Q170.9063,181.372 171.4688,181.6689 L171.4688,184.3877 Q170.8438,183.8095 170.25,183.5439 Q169.6563,183.2627 169.0313,183.2627 Q167.6875,183.2627 167,184.3408 Q166.3125,185.4033 166.3125,187.497 Q166.3125,189.5908 167,190.6689 Q167.6875,191.7314 169.0313,191.7314 Q169.6563,191.7314 170.25,191.4658 Q170.8438,191.1845 171.4688,190.6064 L171.4688,193.3252 Z " fill="#000000"/><text fill="#D9B8FF" font-family="Helvetica" font-size="17" lengthAdjust="spacing" textLength="181" x="187.5" y="193.5698">digitalocean_resource</text></g><!--class resource--><g id="elem_resource"><rect codeLine="29" fill="#3D176E" height="39.7891" id="resource" rx="2.5" ry="2.5" style="stroke:#000D19;stroke-width:0.5;" width="113" x="79.5" y="7"/><ellipse cx="94.5" cy="26.8945" fill="#ADD1B2" rx="11" ry="11" style="stroke:#181818;stroke-width:1.0;"/><path d="M97.4688,32.5352 Q96.8906,32.832 96.25,32.9727 Q95.6094,33.1289 94.9063,33.1289 Q92.4063,33.1289 91.0781,31.4883 Q89.7656,29.832 89.7656,26.707 Q89.7656,23.582 91.0781,21.9258 Q92.4063,20.2695 94.9063,20.2695 Q95.6094,20.2695 96.25,20.4258 Q96.9063,20.582 97.4688,20.8789 L97.4688,23.5977 Q96.8438,23.0195 96.25,22.7539 Q95.6563,22.4727 95.0313,22.4727 Q93.6875,22.4727 93,23.5508 Q92.3125,24.6133 92.3125,26.707 Q92.3125,28.8008 93,29.8789 Q93.6875,30.9414 95.0313,30.9414 Q95.6563,30.9414 96.25,30.6758 Q96.8438,30.3945 97.4688,29.8164 L97.4688,32.5352 Z " fill="#000000"/><text fill="#D9B8FF" font-family="Helvetica" font-size="17" lengthAdjust="spacing" textLength="71" x="113.5" y="32.7798">resource</text></g><!--reverse link digitalocean_resource to digitalocean_container_registry--><g id="link_digitalocean_resource_digitalocean_container_registry"><path codeLine="32" d="M242.2175,222.8116 C221.8475,253.3316 192.23,297.69 171.83,328.25 " fill="none" id="digitalocean_resource-backto-digitalocean_container_registry" style="stroke:#FFAF37;stroke-width:2.0;"/><polygon fill="none" points="252.21,207.84,237.2269,219.4808,247.208,226.1425,252.21,207.84" style="stroke:#FFAF37;stroke-width:2.0;"/></g><!--reverse link resource to digitalocean_container_registry--><g id="link_resource_digitalocean_container_registry"><path codeLine="33" d="M134.1438,65.0706 C132.6138,97.9706 131.24,149.28 136,207.58 C139.55,251 149.18,301.26 154.79,328.14 " fill="none" id="resource-backto-digitalocean_container_registry" style="stroke:#FFAF37;stroke-width:2.0;"/><polygon fill="none" points="134.98,47.09,128.1503,64.7918,140.1373,65.3493,134.98,47.09" style="stroke:#FFAF37;stroke-width:2.0;"/></g><!--reverse link resource to digitalocean_resource--><g id="link_resource_digitalocean_resource"><path codeLine="34" d="M162.9086,61.0217 C187.6986,91.5417 224.56,136.9 249.38,167.46 " fill="none" id="resource-backto-digitalocean_resource" style="stroke:#FFAF37;stroke-width:2.0;"/><polygon fill="none" points="151.56,47.05,158.2514,64.8046,167.5658,57.2389,151.56,47.05" style="stroke:#FFAF37;stroke-width:2.0;"/></g><!--SRC=[hT1DRy8m30RWUtz59Cv8PMWhIBj0fMcxe6diZjp4AH5jWXmpr7tyzxLZJA4jSDdLxwFuTTP6eS1oovKeiSoGVEGtncw1e1Gp8hTFNU583BG6FKxQuOEpV1Kie4JnYCKRif7G5gzh8pSMlHStGJG7kSd9xQmwFCy4rjSHMWvKMe3tCsOosOunAAEcsKJhjcm_EXYhKNA77UP88VsIE8xLQDecLrTTlFjFBCqxYb7uQGl7sAdPMV6ZBhPiH52oS-WnFzln6PGoDXUtmUpbq8aiqibykGRbzetMKFXmZMSaT5njCUrSXTE9qaalVZg78zbydL0cDmo5amXs9UipmDITLeIvyKoL-8YYhpvAwDsE98RWTDRFxp-7m-6rhT4_ycCMVGC0]--></g></svg>

<svg xmlns="http://www.w3.org/2000/svg" width="383" height="374" viewBox="0 0 383 374"><rect width="304" height="39.789" x="7" y="328.58" fill="#3D176E" rx="2.5" ry="2.5" style="stroke:#000d19;stroke-width:.5"/><circle cx="22" cy="348.474" r="11" fill="#ADD1B2" style="stroke:#181818;stroke-width:1"/><path d="M24.969 354.115q-.578.297-1.219.438-.64.156-1.344.156-2.5 0-3.828-1.64-1.312-1.657-1.312-4.782t1.312-4.781q1.328-1.656 3.828-1.656.703 0 1.344.156.656.156 1.219.453v2.719q-.625-.579-1.219-.844-.594-.281-1.219-.281-1.343 0-2.031 1.078-.687 1.062-.687 3.156t.687 3.172q.688 1.062 2.031 1.062.625 0 1.219-.265.594-.281 1.219-.86z"/><text x="41" y="354.36" fill="#D9B8FF" font-family="Helvetica" font-size="17" textLength="262">digitalocean_container_registry</text><rect width="223" height="39.789" x="153.5" y="167.79" fill="#3D176E" rx="2.5" ry="2.5" style="stroke:#000d19;stroke-width:.5"/><circle cx="168.5" cy="187.685" r="11" fill="#ADD1B2" style="stroke:#181818;stroke-width:1"/><path d="M171.469 193.325q-.578.297-1.219.438-.64.156-1.344.156-2.5 0-3.828-1.64-1.312-1.657-1.312-4.782t1.312-4.781q1.328-1.656 3.828-1.656.703 0 1.344.156.656.156 1.219.453v2.719q-.625-.578-1.219-.844-.594-.281-1.219-.281-1.344 0-2.031 1.078-.687 1.062-.687 3.156t.687 3.172q.688 1.062 2.031 1.062.625 0 1.219-.265.594-.281 1.219-.86z"/><text x="187.5" y="193.57" fill="#D9B8FF" font-family="Helvetica" font-size="17" textLength="181">digitalocean_resource</text><rect width="113" height="39.789" x="79.5" y="7" fill="#3D176E" rx="2.5" ry="2.5" style="stroke:#000d19;stroke-width:.5"/><circle cx="94.5" cy="26.895" r="11" fill="#ADD1B2" style="stroke:#181818;stroke-width:1"/><path d="M97.469 32.535q-.578.297-1.219.438-.64.156-1.344.156-2.5 0-3.828-1.64-1.312-1.657-1.312-4.782t1.312-4.781q1.328-1.656 3.828-1.656.703 0 1.344.156.656.156 1.219.453v2.719q-.625-.578-1.219-.844-.594-.281-1.219-.281-1.344 0-2.031 1.078-.687 1.062-.687 3.156T93 29.879q.688 1.062 2.031 1.062.625 0 1.219-.265.594-.281 1.219-.86z"/><text x="113.5" y="32.78" fill="#D9B8FF" font-family="Helvetica" font-size="17" textLength="71">resource</text><path fill="none" d="M242.218 222.812c-20.37 30.52-49.988 74.878-70.388 105.438m80.38-120.41-14.983 11.64 9.981 6.663z" style="stroke:#ffaf37;stroke-width:2"/><g fill="none"><path d="M134.144 65.07c-1.53 32.9-2.904 84.21 1.856 142.51 3.55 43.42 13.18 93.68 18.79 120.56" style="stroke:#ffaf37;stroke-width:2"/><path d="m134.98 47.09-6.83 17.702 11.987.557z" style="stroke:#ffaf37;stroke-width:2"/></g><path fill="none" d="M162.909 61.022c24.79 30.52 61.651 75.878 86.471 106.438M151.56 47.05l6.691 17.755 9.315-7.566z" style="stroke:#ffaf37;stroke-width:2"/></svg>
